X: 3
T: The Swaggering Jig
R: slip jig
M: 9/8
L: 1/8
K: Gmaj
BAG AGE EDD | BAG AGE c2 d | BAG AGE ED>D | cBA BGE D2 :|GBd efe dcB | GBd efe d2 B | GBd efe dcB | AGE GAB c2 A |GBd efe dcB | GBd efe d2 f | gfe edB BAG | AGE GAB c2 |]


Tune 661	Setting 13697

